X: 43089
T: Wind Waker, The
R: slip jig
M: 9/8
K: Dmajor
A2A|:A2d f2e d2c|d2B G2c AdB|c2A G2d B2c|d2e fde A2A|
A2d f2e d2c|d2B G2c AdB|c2d e2f gec|2 d3 d3 A2A:|2 d3 d3 a2a||
|:gfe f2d cde|add gdd f2f|gab bge a2a|gfd efe e2e|
dcd e2e afd|gcc f2f ece|dBd gab fdf|1 e3 efe a2a:|2 e3 e2a A2A||

